X:15012
T:Orataba Waltz
R:Waltz
C:Trad.
O:Australia
Z:Paul Hardy's Session Tunebook 2015 (see www.paulhardy.net). Creative Commons cc by-nc-sa licenced.
M:3/4
L:1/4
Q:1/4=140
K:G
d/c/|"G"BDD|G2B|"Am"AEE|A2G|"D"FAc|f2 e/f/|"G"ed>d|d2 "D"d/c/|
"G"BDD|G2B|"Am"AEE|A2 d/e/|"D"fed|c F>G|"G"G>A G/F/|G2B/A/||
"G"GB>c|dg>g|"Am"fAB|"D"c2 f/g/|fAB|c2 e/f/|"G"ed>d|"D"d2 B/A/|
"G"GB>c|dg>g|"D"fAB|c2 d/e/|fed|cF>G|"G"G>A G/F/|"G"G2|]

